X: 02076
T: MARTHA'S MUSIC
C: Bob McQuillen July'74
B: Bob's Note Book 1&2 #76
%R: reel
Z: 2019 John Chambers <jc:trillian.mit.edu>
M: C
L: 1/8
K: D
FE \
| D2F2 ABAG | F2A2 d2A2 | BcdB AFBA | G2E2 EGFE |\
| D2F2 ABAG | F2A2 d2A2 | BcdB AFEG | F2D2 D2  :|
|: AG \
| F2A2 A2dc | BGBd A2AG | FAdf gfed | f2e2 e2cB |\
| F2A2 A2dc | BGBd A2de | fefg afeg | f2d2 d2  :|
%%begintext align
%% For Martha Wiederhold,
%% whose beautiful singing
%% makes me cry ...
%%endtext

%%sep 1 1 500

%%sep 1 1 500

